public/images/icon/icon_grandma.svg

<?xml version="1.0" encoding="UTF-8"?>
<svg data-name="Line stroke cut Ex" viewBox="0 0 512 512" xmlns="http://www.w3.org/2000/svg">
    <path
        d="m406.78 409.36-28.09-10.032-5.38 15.068 28.09 10.032a22.046 22.046 0 0 1 14.6 20.719v50.858h16v-50.858a38.081 38.081 0 0 0-25.22-35.787z" />
    <path
        d="m240 304h32a32.036 32.036 0 0 0 32-32h-16a16.019 16.019 0 0 1-16 16h-32a16.019 16.019 0 0 1-16-16h-16a32.036 32.036 0 0 0 32 32z" />
    <path
        d="M319.615,373.531l-9.7-33.964L314.667,336H324a28.034,28.034,0,0,0,25.319-16.05q1.341.05,2.681.05a72.081,72.081,0,0,0,72-72,71.31,71.31,0,0,0-11.65-39.287,40.038,40.038,0,0,0-20.706-53.541A108.129,108.129,0,0,0,311.8,59.6,48.067,48.067,0,0,0,264,16H248a48.065,48.065,0,0,0-47.8,43.641A107.907,107.907,0,0,0,157.8,81.922l10.4,12.156A92,92,0,0,1,228,72h56a92,92,0,0,1,91.959,89.233,8,8,0,0,0,6.014,7.515,24.015,24.015,0,0,1,14.244,36.194,8,8,0,0,0,.367,9.167A55.483,55.483,0,0,1,408,248a56.063,56.063,0,0,1-56,56V247.889A18.026,18.026,0,0,0,368,230V202a18.026,18.026,0,0,0-16.111-17.9A68.087,68.087,0,0,0,284,120H228a68.087,68.087,0,0,0-67.889,64.1A18.026,18.026,0,0,0,144,202v28a18.026,18.026,0,0,0,16,17.889V304a56.063,56.063,0,0,1-56-56,55.483,55.483,0,0,1,11.416-33.891,8,8,0,0,0,.367-9.167,24.015,24.015,0,0,1,14.244-36.194,8,8,0,0,0,6.014-7.515,92.159,92.159,0,0,1,22.036-57.025L145.923,93.8A108.253,108.253,0,0,0,120.36,155.17a40.038,40.038,0,0,0-20.71,53.543A71.31,71.31,0,0,0,88,248a72.081,72.081,0,0,0,72,72q1.338,0,2.681-.05A28.034,28.034,0,0,0,188,336h9.333l4.756,3.567-9.7,33.964-1.961,5.395-85.2,30.429A38.081,38.081,0,0,0,80,445.142V496H96V445.142a22.046,22.046,0,0,1,14.6-20.719l72.723-25.973-8.2,22.539a28.05,28.05,0,0,0,26.205,37.605,28.325,28.325,0,0,0,9.679-1.721L256,440.513l44.989,16.36a28.287,28.287,0,0,0,9.678,1.721,28.05,28.05,0,0,0,26.205-37.605l-8.2-22.539,28.634,10.227,5.38-15.068-41.113-14.683ZM228,56a107.9,107.9,0,0,0-11.13.576A32.056,32.056,0,0,1,248,32h16a32.056,32.056,0,0,1,31.127,24.565A109.571,109.571,0,0,0,284,56ZM352,230a2,2,0,0,1-2,2H290a2,2,0,0,1-2-2V202a2,2,0,0,1,2-2h60a2,2,0,0,1,2,2ZM228,136h56a52.07,52.07,0,0,1,51.848,48H290a18.031,18.031,0,0,0-16.979,12.021,37.861,37.861,0,0,0-34.042,0A18.031,18.031,0,0,0,222,184H176.152A52.07,52.07,0,0,1,228,136Zm-68,66a2,2,0,0,1,2-2h60a2,2,0,0,1,2,2v28a2,2,0,0,1-2,2H162a2,2,0,0,1-2-2Zm28,118a12.013,12.013,0,0,1-12-12V248h46a18.021,18.021,0,0,0,18-18V214.226l3.8-2.531a21.938,21.938,0,0,1,24.406,0l3.8,2.531V230a18.021,18.021,0,0,0,18,18h46v60a12.013,12.013,0,0,1-12,12H312a8.006,8.006,0,0,0-4.8,1.6l-26.668,20a12.065,12.065,0,0,1-7.2,2.4H238.667a12.07,12.07,0,0,1-7.2-2.4l-26.667-20A8.006,8.006,0,0,0,200,320Zm33.867,34.4a28.174,28.174,0,0,0,16.8,5.6h34.666a28.174,28.174,0,0,0,16.8-5.6l6.074-4.556,6.808,23.828L256,420.687l-47.015-47.015,6.808-23.828Zm-16.323,87.435a12,12,0,0,1-15.379-15.378l13.061-35.917,38.234,38.234Zm113.5-2.792a11.734,11.734,0,0,1-12.586,2.792L270.54,428.774l38.234-38.234,13.061,35.917A11.738,11.738,0,0,1,319.043,439.043Z" />
</svg>

<?xml version="1.0" encoding="UTF-8"?>
<svg xmlns="http://www.w3.org/2000/svg" id="Line_stroke_cut_Ex" data-name="Line stroke cut Ex" width="512" height="512" viewBox="0 0 512 512"><g><path d="M406.78,409.355l-28.09-10.032-5.38,15.068L401.4,424.423A22.046,22.046,0,0,1,416,445.142V496h16V445.142A38.081,38.081,0,0,0,406.78,409.355Z"/><path d="M240,304h32a32.036,32.036,0,0,0,32-32H288a16.019,16.019,0,0,1-16,16H240a16.019,16.019,0,0,1-16-16H208A32.036,32.036,0,0,0,240,304Z"/><path d="M319.615,373.531l-9.7-33.964L314.667,336H324a28.034,28.034,0,0,0,25.319-16.05q1.341.05,2.681.05a72.081,72.081,0,0,0,72-72,71.31,71.31,0,0,0-11.65-39.287,40.038,40.038,0,0,0-20.706-53.541A108.129,108.129,0,0,0,311.8,59.6,48.067,48.067,0,0,0,264,16H248a48.065,48.065,0,0,0-47.8,43.641A107.907,107.907,0,0,0,157.8,81.922l10.4,12.156A92,92,0,0,1,228,72h56a92,92,0,0,1,91.959,89.233,8,8,0,0,0,6.014,7.515,24.015,24.015,0,0,1,14.244,36.194,8,8,0,0,0,.367,9.167A55.483,55.483,0,0,1,408,248a56.063,56.063,0,0,1-56,56V247.889A18.026,18.026,0,0,0,368,230V202a18.026,18.026,0,0,0-16.111-17.9A68.087,68.087,0,0,0,284,120H228a68.087,68.087,0,0,0-67.889,64.1A18.026,18.026,0,0,0,144,202v28a18.026,18.026,0,0,0,16,17.889V304a56.063,56.063,0,0,1-56-56,55.483,55.483,0,0,1,11.416-33.891,8,8,0,0,0,.367-9.167,24.015,24.015,0,0,1,14.244-36.194,8,8,0,0,0,6.014-7.515,92.159,92.159,0,0,1,22.036-57.025L145.923,93.8A108.253,108.253,0,0,0,120.36,155.17a40.038,40.038,0,0,0-20.71,53.543A71.31,71.31,0,0,0,88,248a72.081,72.081,0,0,0,72,72q1.338,0,2.681-.05A28.034,28.034,0,0,0,188,336h9.333l4.756,3.567-9.7,33.964-1.961,5.395-85.2,30.429A38.081,38.081,0,0,0,80,445.142V496H96V445.142a22.046,22.046,0,0,1,14.6-20.719l72.723-25.973-8.2,22.539a28.05,28.05,0,0,0,26.205,37.605,28.325,28.325,0,0,0,9.679-1.721L256,440.513l44.989,16.36a28.287,28.287,0,0,0,9.678,1.721,28.05,28.05,0,0,0,26.205-37.605l-8.2-22.539,28.634,10.227,5.38-15.068-41.113-14.683ZM228,56a107.9,107.9,0,0,0-11.13.576A32.056,32.056,0,0,1,248,32h16a32.056,32.056,0,0,1,31.127,24.565A109.571,109.571,0,0,0,284,56ZM352,230a2,2,0,0,1-2,2H290a2,2,0,0,1-2-2V202a2,2,0,0,1,2-2h60a2,2,0,0,1,2,2ZM228,136h56a52.07,52.07,0,0,1,51.848,48H290a18.031,18.031,0,0,0-16.979,12.021,37.861,37.861,0,0,0-34.042,0A18.031,18.031,0,0,0,222,184H176.152A52.07,52.07,0,0,1,228,136Zm-68,66a2,2,0,0,1,2-2h60a2,2,0,0,1,2,2v28a2,2,0,0,1-2,2H162a2,2,0,0,1-2-2Zm28,118a12.013,12.013,0,0,1-12-12V248h46a18.021,18.021,0,0,0,18-18V214.226l3.8-2.531a21.938,21.938,0,0,1,24.406,0l3.8,2.531V230a18.021,18.021,0,0,0,18,18h46v60a12.013,12.013,0,0,1-12,12H312a8.006,8.006,0,0,0-4.8,1.6l-26.668,20a12.065,12.065,0,0,1-7.2,2.4H238.667a12.07,12.07,0,0,1-7.2-2.4l-26.667-20A8.006,8.006,0,0,0,200,320Zm33.867,34.4a28.174,28.174,0,0,0,16.8,5.6h34.666a28.174,28.174,0,0,0,16.8-5.6l6.074-4.556,6.808,23.828L256,420.687l-47.015-47.015,6.808-23.828Zm-16.323,87.435a12,12,0,0,1-15.379-15.378l13.061-35.917,38.234,38.234Zm113.5-2.792a11.734,11.734,0,0,1-12.586,2.792L270.54,428.774l38.234-38.234,13.061,35.917A11.738,11.738,0,0,1,319.043,439.043Z"/></g></svg>
